!!!!SEGMENT: pl-sa--55-a-i-55--001-006_wanski-jan--missa-solemnissima-pleni-sunt.krn
!!!cenid: 18xx:344
!!!COM: Wański, Jan
!!!COM-rismID: pe30003295
!!!CDT: ~1800-1888/04
!!!CNT: Polish
!!!OPR: Missa Solemnissima
!!!OTL: Pleni Sunt
!!!OMV: 006
!!!PDT: 1830
!!!AGN: Sacred; Mass
!!!SMS-siglum: PL-SA
!!!SMS-shelfmark: 55/A I 55
!!!SMS-shelfwork: 001-006 M
!!!SMS-variant:
!!!SMS-altvar:
!!!NIFC-rismSourceID: 1001035335
!!!NIFC-rismChildID: 1001035335
!!!NIFC-islandoraID: none
!!!URL-pdf-islandora:
!!!URL-scan: https://bc.bdsandomierz.pl/dlibra/publication/1331/edition/1299/content @EN{Scan in the Sandomierz Diocese Digital Library} @PL{Skany w portalu Cyfrowa Biblioteka Diecezjalna w Sandomierzu}
!!!IIIF:
!!!ONB-nifc: UWAGA: części Mszy: Kyrie, Christe, Gloria, Credo, Sanctus, Pleni Sunt, Benedictus, Agnus Dei
!!!AIN: 1 alto 3 empty 1 organ 1 tenor 2 violn 1 vox
!!!key:
**kern	**fba	**text	**kern	**kern	**dynam	**kern	**text	**kern	**text	**kern	**text	**kern	**text	**kern	**kern
*part9	*	*part9	*part8	*part7	*part7	*part6	*part6	*part5	*part5	*part4	*part4	*part3	*part3	*part2	*part1
*staff9	*	*staff9	*staff8	*staff7	*	*staff6	*staff6	*staff5	*staff5	*staff4	*staff4	*staff3	*staff3	*staff2	*staff1
*Iorgan	*	*	*Ivioln	*Ivioln	*	*Iempty	*	*Itenor	*	*Ialto	*	*Ivox	*	*Iempty	*Iempty
*I"Organo	*	*	*I"Violino Secundo.	*I"Violino Primo.	*	*I"Baſso.	*	*I"Tenore	*	*I"Alto	*	*I"Canto	*	*I"Cornu Secundo in C.	*I"Cornu Primo in C.
*I'Org.	*	*	*I'Violino Secundo	*I'Violino Primo	*	*I'B.	*	*I'T.	*	*I'A.	*	*I'C.	*	*I'Cornu Secundo in C.	*I'Cornu Primo in C.
*clefF4	*	*	*clefG2	*clefG2	*	*clefF4	*	*clefC4	*	*clefC3	*	*clefC1	*	*clefG2	*clefG2
*	*	*	*	*	*	*	*	*	*	*	*	*	*	*Trd0c0	*Trd0c0
*k[]	*	*	*k[]	*k[]	*	*k[]	*	*k[]	*	*k[]	*	*k[]	*	*k[]	*k[]
*C:	*	*	*C:	*C:	*	*C:	*	*C:	*	*C:	*	*C:	*	*C:	*C:
*M3/8	*	*	*M3/8	*M3/8	*	*M3/8	*	*M3/8	*	*M3/8	*	*M3/8	*	*M3/8	*M3/8
*	*	*	*	*	*below	*	*	*	*	*	*	*	*	*	*
=1	=1	=1	=1	=1	=1	=1	=1	=1	=1	=1	=1	=1	=1	=1	=1
!LO:SIC:o:s=:v: wszystkie dolne caudy z prawej strony	!	!	!	!LO:SIC:o:s=:v: wszędzie  dolne caudy z prawej strony	!	!LO:SIC:o:s=:v:4\right	!	!LO:TX:a:t=Allo.	!	!LO:SIC:o:s=:v:4\right	!	!LO:SIC:o:s=:v:4\right	!	!	!LO:SIC:o:s=:v: wszystkie dolne caudy z prawej strony
!LO:TX:a:t=Allo. Tutti	!	!	!LO:TX:a:t=Allo.	!LO:TX:a:t=Allo..	!	!LO:TX:a:t=Allo.	!	!LO:TX:a:t=1	!	!LO:TX:a:t=Allo.	!	!LO:TX:a:t=allo.	!	!LO:TX:a:t=Allo.	!LO:TX:a:t=Allo.
4G\	.	.	4g/	4gg\	.	4G\	Ple-	4.r	.	4g\	Ple-	4gg\	Ple-	4g/	4gg\
!	!	!	!	!	!	!LO:SIC:o:s=:v: 8\right	!	!	!	!LO:SIC:o:s=:v: 8\right	!	!LO:SIC:o:s=:v: 8\right	!	!	!
8E\	.	.	8e/	8ee\	.	8E\	-ni	.	.	8e\	-ni	8ee\	-ni	8e/	8ee\
=2	=2	=2	=2	=2	=2	=2	=2	=2	=2	=2	=2	=2	=2	=2	=2
!	!	!	!	!	!	!	!	!LO:SIC:o:s=:v:4\right	!	!	!	!	!	!	!
4C/	8	.	4c/	4cc\	.	4C/	ple-	4c\	Ple-	4c\	ple-	4cc\	ple-	4c/	4cc\
8GG/	8	.	8G/	8g/	.	8GG/	-ni	8F/	-ni	8g\	-ni	8g\	-ni	8r	8r
=3	=3	=3	=3	=3	=3	=3	=3	=3	=3	=3	=3	=3	=3	=3	=3
!	!	!	!	!	!	!	!	!LO:SIC:o:s=:v: 8\right	!	!	!	!	!	!	!
8C`\L	.	.	8c/L	8cc\L	.	8C\L	sunt	8c\L	sunt	8c\L	sunt	8cc\L	sunt	8c/L	8cc\L
8E`\	.	.	8e/	8ee\	.	8E\	.	8e\	.	8e\	.	8ee\	.	8e/	8ee\
8G`\J	.	.	8g/J	8gg\J	.	8G\J	.	8g\J	.	8g\J	.	8gg\J	.	8g/J	8gg\J
=4	=4	=4	=4	=4	=4	=4	=4	=4	=4	=4	=4	=4	=4	=4	=4
8C`/L	.	.	8c/L	8cc\L	.	8C\L	c(o)e-	8c\L	c(o)e-	8c\L	Ce-	8cc\L	ple-	4c/	8cc\L
8E`/	.	.	8e/	8ee\	.	8G\	.	8e\	.	8e\	.	8ee\	.	.	8ee\
!	!	!	!	!LO:TX:a:t=P:problem=mixed beam	!	!LO:TX:a:t=P:problem=mixed beam	!	!LO:TX:a:t=P:problem=mixed beam	!	!	!	!LO:TX:a:t=P:problem=mixed beam	!	!	!LO:TX:a:t=P:problem=mixed beam
8GG`/J	.	.	8G/J	8g/J	.	8GG/J	-li	8G/J	-li	8g\J	.	8g/J	-ni	8r	8g/J
=5	=5	=5	=5	=5	=5	=5	=5	=5	=5	=5	=5	=5	=5	=5	=5
8C`\L	.	.	8c/L	8cc\L	.	8C\L	et	8c\L	c(o)e-	8c\L	.	8cc\L	sunt	8c/L	8cc\L
8E`\	.	.	8e/	8ee\	.	8E\	ter-	8e\	.	8e\	.	8ee\	.	8e/	8ee\
8G`\J	.	.	8g/J	8gg\J	.	8G\J	-ra	8g\J	-li	8g\J	.	8gg\J	c(o)e-	8g/J	8gg\J
=6	=6	=6	=6	=6	=6	=6	=6	=6	=6	=6	=6	=6	=6	=6	=6
4C/	8	.	16e/LL	(16cc\LL	.	4C/	.	4c\	.	4c\	-li	4cc\	-li	4e/	4cc\
.	.	.	16d/	16b\	.	.	.	.	.	.	.	.	.	.	.
.	.	.	16f/	16dd\)	.	.	.	.	.	.	.	.	.	.	.
.	.	.	16d/J	16b\J	.	.	.	.	.	.	.	.	.	.	.
!	!	!	!	!	!	!	!	!LO:SIC:o:s=:v: brak wpisanej pauzy	!	!	!	!	!	!LO:SIC:o:s=:v: brak kreski taktowej między 6 i 7 t.	!
8r	.	.	8e/J	8cc\J	.	8r	.	8ryy	.	8r	.	8r	.	8r	8r
=7	=7	=7	=7	=7	=7	=7	=7	=7	=7	=7	=7	=7	=7	=7	=7
!	!	!	!	!	!	!LO:TX:a:t=8	!	!LO:TX:a:t=8	!	!	!	!	!	!LO:TX:a:t=8	!LO:TX:a:t=8
!	!	!	!	!	!	!LO:N:vis=00	!	!LO:N:vis=00	!	!	!	!	!	!LO:N:vis=00	!LO:N:vis=00
4C/	6 4	.	8.a/L	8.cc\L	.	1.r	.	1.r	.	8.a\L	C(o)e-	8.cc\L	glo-	1.r	1.r
!	!	!	!	!	!	!	!	!	!	!LO:SIC:o:s=:v:16\right	!	!LO:SIC:o:s=:v:16\right	!	!	!
.	.	.	16g/K	16b\K	.	.	.	.	.	16g\K	.	16b\K	.	.	.
8r	.	.	8f/J	8a\J	.	.	.	.	.	8f\J	.	8a\J	.	.	.
=8	=8	=8	=8	=8	=8	=8	=8	=8	=8	=8	=8	=8	=8	=8	=8
4C/	5 3	.	8e/L	8g/L	.	.	.	.	.	8e\L	.	8g/L	-ri-	.	.
.	.	.	8d/	8f/	.	.	.	.	.	8d\	.	8f/	-a	.	.
8r	.	.	8c/J	8e/J	.	.	.	.	.	8c\J	.	8e/J	.	.	.
=9	=9	=9	=9	=9	=9	=9	=9	=9	=9	=9	=9	=9	=9	=9	=9
4GG/	7 3	.	8B/L	8d/L	.	.	.	.	.	8B/L	.	8d/L	Tua	.	.
.	.	.	8c/	8e/	.	.	.	.	.	8c/	.	8e/	.	.	.
8r	.	.	8d/J	8f/J	.	.	.	.	.	8d/J	.	8f/J	.	.	.
=10	=10	=10	=10	=10	=10	=10	=10	=10	=10	=10	=10	=10	=10	=10	=10
4C/	5 3	.	8c/L	(8e/L	f	.	.	.	.	4c\	-li	4e/	Tua	.	.
!	!	!	!	!LO:TX:a:t=P:problem=mixed beam	!	!	!	!	!	!	!	!	!	!	!
.	.	.	8e/	8ee\	.	.	.	.	.	.	.	.	.	.	.
8r	.	.	8g/J	8gg\J)	.	.	.	.	.	8r	.	8r	.	.	.
!	!	!	!	!LO:LB:g=original	!	!	!	!	!	!LO:LB:g=original	!	!LO:LB:g=original	!	!	!
=11	=11	=11	=11	=11	=11	=11	=11	=11	=11	=11	=11	=11	=11	=11	=11
!	!	!	!	!	!	!LO:N:vis=00	!	!LO:N:vis=00	!	!	!	!	!	!LO:N:vis=00	!LO:N:vis=00
4C/	6 4	.	8.a/L	8.cc\L	p	1.r	.	1.r	.	8a\L	C(o)e-	8.cc\L	Tua	1.r	1.r
.	.	.	.	.	.	.	.	.	.	8g\	.	.	.	.	.
.	.	.	16g/K	16b\K	.	.	.	.	.	.	.	16b\K	.	.	.
8r	.	.	8f/J	8a\J	.	.	.	.	.	8f\J	-li	8a\J	.	.	.
!LO:LB:g=original	!	!	!	!	!	!	!	!	!	!	!	!	!	!	!
=12	=12	=12	=12	=12	=12	=12	=12	=12	=12	=12	=12	=12	=12	=12	=12
4C/	5 3	.	8e/L	(8g/L	.	.	.	.	.	8e/L	et	8g/L	Tua	.	.
.	.	.	8d/	8f/)	.	.	.	.	.	8d/	.	8f/	.	.	.
8r	.	.	8c/J	8e/J	.	.	.	.	.	8c/J	.	8e/J	.	.	.
=13	=13	=13	=13	=13	=13	=13	=13	=13	=13	=13	=13	=13	=13	=13	=13
8F#X\L	7	.	8c/L	8d/L	.	.	.	.	.	4.c\	ter-	4.e/	Tu-	.	.
8F#\	.	.	8c/	8e/	.	.	.	.	.	.	.	.	.	.	.
8F#\J	.	.	8c/J	8e/J	.	.	.	.	.	.	.	.	.	.	.
!	!	!	!LO:LB:g=original	!	!	!	!	!	!	!	!	!	!	!	!
=14	=14	=14	=14	=14	=14	=14	=14	=14	=14	=14	=14	=14	=14	=14	=14
4.G\;<	5 3	.	4B;/	4.d;/	.	.	.	.	.	4.B;/	-ra	4.d/	-a	.	.
!	!	!	!LO:SIC:o:s=:v: brak wpisanej pauzy	!	!	!	!	!	!	!	!	!	!	!	!
.	.	.	8r	.	.	.	.	.	.	.	.	.	.	.	.
=||15	=||15	=||15	=||15	=||15	=||15	=||15	=||15	=||15	=||15	=||15	=||15	=||15	=||15	=||15	=||15
*clefC1	*	*	*	*	*	*	*	*	*	*	*	*	*	*	*
!	!	!	!LO:TX:a:t=4	!	!	!LO:TX:a:t=9	!	!LO:TX:a:t=4	!	!LO:TX:a:t=4	!	!	!	!LO:TX:a:t=9	!LO:TX:a:t=9
!	!	!	!LO:N:vis=00	!	!	!LO:N:vis=00	!	!LO:N:vis=00	!	!LO:N:vis=00	!	!	!	!LO:N:vis=00	!LO:N:vis=00
8cc\L	.	Osanna.	1.r	8cc\L	f	1.r	.	1.r	.	1.r	.	8cc\	O-	1.r	1.r
8cc\	.	.	.	8cc\	.	.	.	.	.	.	.	8cc\	-san-	.	.
8cc\J	.	.	.	8cc\J	.	.	.	.	.	.	.	8cc\	-na	.	.
=16	=16	=16	=16	=16	=16	=16	=16	=16	=16	=16	=16	=16	=16	=16	=16
16b\LL	.	.	.	16b\LL	.	.	.	.	.	.	.	16b\LL	o-	.	.
16cc\	.	.	.	16cc\	.	.	.	.	.	.	.	16cc\	.	.	.
16dd\	.	.	.	16dd\	.	.	.	.	.	.	.	16dd\	.	.	.
16b\JJ	.	.	.	16b\J	.	.	.	.	.	.	.	16b\J	.	.	.
8g\	.	.	.	8g\J	.	.	.	.	.	.	.	8g\J	.	.	.
=17	=17	=17	=17	=17	=17	=17	=17	=17	=17	=17	=17	=17	=17	=17	=17
!	!	!	!	!	!	!	!	!	!	!	!	!LO:SIC:s=:v:-san-	!	!	!
16a\LL	.	.	.	16a/LL	.	.	.	.	.	.	.	16a/LL	-sa-	.	.
16f\	.	.	.	16f/	.	.	.	.	.	.	.	16f/	.	.	.
16g\	.	.	.	16g/	.	.	.	.	.	.	.	16g/	.	.	.
16e\	.	.	.	16e/	.	.	.	.	.	.	.	16e/	.	.	.
16f\	.	.	.	16f/	.	.	.	.	.	.	.	16f/	.	.	.
16d\JJ	.	.	.	16d/JJ	.	.	.	.	.	.	.	16d/JJ	-na	.	.
=18	=18	=18	=18	=18	=18	=18	=18	=18	=18	=18	=18	=18	=18	=18	=18
8e/L	.	.	.	8e/L	.	.	.	.	.	.	.	8e/L	in	.	.
16c/L	.	.	.	16c/L	.	.	.	.	.	.	.	16c/L	ex-	.	.
16d/	.	.	.	16d/	.	.	.	.	.	.	.	16d/	.	.	.
16e/	.	.	.	16e/	.	.	.	.	.	.	.	16e/	-Cel-	.	.
16f#X/JJ	.	.	.	16f#X/JJ	.	.	.	.	.	.	.	16f#X/JJ	.	.	.
=19	=19	=19	=19	=19	=19	=19	=19	=19	=19	=19	=19	=19	=19	=19	=19
*clefC3	*	*	*	*	*	*	*	*	*	*	*	*	*	*	*
*^	*	*	*	*	*	*	*	*	*	*	*	*	*	*	*
!	!	!	!	!	!	!	!LO:N:vis=00	!	!	!	!	!	!	!	!LO:N:vis=00	!LO:N:vis=00
8g/L	8G\L	.	.	8g/L	8g/	.	1.r	.	8G\	O-	8g\L	O-	8g\	-sis	1.r	1.r
8g/	8B\	.	.	8g/	8r	.	.	.	8B\	-san-	8g\	-san-	8r	.	.	.
8g/J	8c\J	.	.	8g/J	8r	.	.	.	8c\	-na	8g\J	-na	8r	.	.	.
=20	=20	=20	=20	=20	=20	=20	=20	=20	=20	=20	=20	=20	=20	=20	=20	=20
!	!	!	!	!	!LO:TX:a:t=1	!	!	!	!	!	!	!	!LO:TX:a:t=1	!	!	!
16f#X/LL	4d\	.	.	16f#X/LL	4.r	.	.	.	4d\	in	16f#X\LL	in	4.r	.	.	.
16g/	.	.	.	16g/	.	.	.	.	.	.	16g\	.	.	.	.	.
16a/	.	.	.	16a/	.	.	.	.	.	.	16a\	.	.	.	.	.
16f#/JJ	.	.	.	16f#/J	.	.	.	.	.	.	16f#\J	.	.	.	.	.
8d/	8B\	.	.	8d/J	.	.	.	.	8B\	ex-	8d\J	ex-	.	.	.	.
*v	*v	*	*	*	*	*	*	*	*	*	*	*	*	*	*	*
*clefC4	*	*	*	*	*	*	*	*	*	*	*	*	*	*	*
!	!	!	!	!	!	!	!	!	!	!	!	!	!LO:LB:g=original	!	!
=21	=21	=21	=21	=21	=21	=21	=21	=21	=21	=21	=21	=21	=21	=21	=21
!	!	!	!LO:SIC:o:s=:v: wszystkie dolne caudy z prawej strony	!	!	!	!	!LO:SIC:o:s=:v:16\right	!	!	!	!	!	!	!
16c\LL	10_	.	16cc\LL	16ee\LL	.	.	.	16c\LL	.	4g\	-Cel-	16ee\LL	in	.	.
!	!	!	!	!	!	!	!	!LO:SIC:o:s=:v: łamanie linii w takcie	!	!	!	!	!	!	!
16A\	.	.	16a\	16cc\	.	.	.	16A\JJ	.	.	.	16cc\	.	.	.
!	!	!	!	!	!	!	!	!LO:LB:g=original	!	!	!	!	!	!	!
16B\	.	.	16b\	16dd\	.	.	.	16A\LL	-Cel-	.	.	16dd\	ex-	.	.
16G\	.	.	16g\	16b\	.	.	.	16G\	.	.	.	16b\	.	.	.
16A\	.	.	16a\	16cc\	.	.	.	16A\	-sis	8a\	-sis	16cc\	-Cel-	.	.
16F#X\JJ	x	.	16f#X\JJ	16a\JJ	.	.	.	16F#X\JJ	.	.	.	16a\JJ	.	.	.
!LO:LB:g=original	!	!	!	!LO:LB:g=original	!	!	!	!	!	!	!	!	!	!	!
=22	=22	=22	=22	=22	=22	=22	=22	=22	=22	=22	=22	=22	=22	=22	=22
8G\	.	.	8g/L	8b\	.	.	.	8G\	ple-	8g\	O-	8b\	-sis	.	.
*clefC3	*	*	*	*	*	*	*	*	*	*	*	*	*	*	*
8B\L 8g\	.	.	8g/	8r	.	.	.	8B\	-ni	8g\	.	8r	.	.	.
8B\J 8g\	.	.	8g/J	8r	.	.	.	8c\	sunt	8g\	.	8r	.	.	.
=23	=23	=23	=23	=23	=23	=23	=23	=23	=23	=23	=23	=23	=23	=23	=23
*^	*	*	*	*	*	*	*	*	*	*	*	*	*	*	*
!	!	!	!	!	!LO:TX:a:t=1	!	!	!	!	!	!	!	!LO:TX:a:t=1	!	!	!
8g/	4d\	.	.	8g/L	4.r	.	4.r	.	4d\	ce-	16g\LL	-san-	4.r	.	4.r	4.r
.	.	.	.	.	.	.	.	.	.	.	16g\	.	.	.	.	.
16f/LL	.	.	.	16fn/L	.	.	.	.	.	.	16fn\	.	.	.	.	.
16g/	.	.	.	16g/	.	.	.	.	.	.	16g\	.	.	.	.	.
16a/	8d\	.	.	16a/	.	.	.	.	8d\	-li	16a\	-na	.	.	.	.
16b/JJ	.	.	.	16b/JJ	.	.	.	.	.	.	16b\JJ	.	.	.	.	.
*v	*v	*	*	*	*	*	*	*	*	*	*	*	*	*	*	*
=24	=24	=24	=24	=24	=24	=24	=24	=24	=24	=24	=24	=24	=24	=24	=24
*clefF4	*	*	*	*	*	*	*	*	*	*	*	*	*	*	*
8C\L	.	.	8e/L	8cc\L	.	8C\L	O-	8G\	glo-	8e\	O-	8cc\L	O-	8cc\L	8ee\L
!	!	!	!	!	!	!	!	!	!	!	!	!	!	!LO:TX:a:t=P:problem=mixed beam	!
8E\	-	.	8g/	8cc\	.	8E\	-san-	8c\	-ri-	8g\	-san-	8cc\	-san-	8e/	8cc\
8F\J	.	.	8a/J	8cc\J	.	8F\J	-na	8d\	-a	8g\	-na	8cc\J	-na	8e/J	8cc\J
!	!	!	!	!	!	!LO:LB:g=original	!	!	!	!	!	!	!	!	!
=25	=25	=25	=25	=25	=25	=25	=25	=25	=25	=25	=25	=25	=25	=25	=25
4G\	.	.	4d/	16b\LL	.	4G\	in	4B\	Tu-	4d\	in	16b\LL	in	4g/	4dd\
.	.	.	.	16cc\	.	.	.	.	.	.	.	16cc\	.	.	.
.	.	.	.	16dd\	.	.	.	.	.	.	.	16dd\	.	.	.
.	.	.	.	16b\J	.	.	.	.	.	.	.	16b\J	.	.	.
8E\	-	.	8c/	8g\J	.	8E\	ex-	8c\	-a	8g\	ex-	8g\J	ex-	8r	8r
!	!	!	!	!	!	!	!	!	!	!LO:LB:g=original	!	!	!	!	!LO:LB:g=original
=26	=26	=26	=26	=26	=26	=26	=26	=26	=26	=26	=26	=26	=26	=26	=26
!	!	!	!	!	!	!	!	!	!	!	!	!	!	!LO:TX:a:t=3	!LO:TX:a:t=3
!	!	!	!	!	!	!	!	!	!	!	!	!	!	!LO:N:vis=0	!LO:N:vis=0
16F\LL	10_	.	8cc\L	16aa\LL	.	16F\LL	-Cel-	8A\L	O-	4cc\	-Cel-	16aa\LL	-Cel-	2.r	2.r
16D\	.	.	.	16ff\	.	16D\	.	.	.	.	.	16ff\	.	.	.
16E\	.	.	8cc\	16gg\	.	16E\	.	8G\J	.	.	.	16gg\	.	.	.
16C\	.	.	.	16ee\	.	16C\	.	.	.	.	.	16ee\	.	.	.
16D\	.	.	8g\J	16ff\	.	16D\	.	16B\LL	-san-	8g\	-sis	16ff\	.	.	.
16BB\JJ	x	.	.	16dd\JJ	.	16BB\JJ	.	16c\JJ	.	.	.	16dd\JJ	-sis	.	.
=27	=27	=27	=27	=27	=27	=27	=27	=27	=27	=27	=27	=27	=27	=27	=27
8C\L	.	.	8g/L	8ee\L	.	8C\L	.	8c\L	-na	8g\L	O-	8ee\L	O-	.	.
8G\	.	.	8f/	8b\	.	8G\	.	8B\	.	8f\	.	8b\	.	.	.
8A\J	.	.	8e/J	8cc\J	.	8A\J	-sis	8c\J	.	8e\J	.	8cc\J	.	.	.
=28	=28	=28	=28	=28	=28	=28	=28	=28	=28	=28	=28	=28	=28	=28	=28
8F\L	6	.	8a/L	8dd\L	.	8F\L	O-	8d\L	O-	8a\L	-san-	8dd\L	-san-	4.r	4.r
8G\	.	.	8e/	8cc\	.	8G\	.	8c\	.	8e\	.	8cc\	.	.	.
!LO:TX:a:t=P:problem=mixed beam	!	!	!	!	!	!LO:TX:a:t=P:problem=mixed beam	!	!	!	!	!	!	!	!	!
8GG/J	.	.	8d/J	8b\J	.	8GG/J	.	8B\J	.	8d\J	.	8b\J	-na	.	.
!	!	!	!	!	!	!	!	!	!	!	!	!	!	!LO:LB:g=original	!
=29	=29	=29	=29	=29	=29	=29	=29	=29	=29	=29	=29	=29	=29	=29	=29
4.CC/ 4.C/	.	.	4.G/ 4.e/	(8cc\L	.	4.C/	-san-	4.G/	-san-	4.e\	-na	8cc\L	in	4c/	8cc\L
.	.	.	.	8g\)	.	.	.	.	.	.	.	8g\	.	.	8g\
.	.	.	.	8ee\J	.	.	.	.	.	.	.	8ee\J	.	8r	8ee\J
=30	=30	=30	=30	=30	=30	=30	=30	=30	=30	=30	=30	=30	=30	=30	=30
4.CC/ 4.C/	.	.	4.G/ 4.e/	(8cc\L	.	4.C/	-na	4.G/	-na	4.e\	in	8cc\L	ex-	4c/	8cc\L
.	.	.	.	8g\)	.	.	.	.	.	.	.	8g\	.	.	8g\
.	.	.	.	8gg'\J	.	.	.	.	.	.	.	8gg\J	.	8r	8gg\J
!	!	!	!	!	!	!	!	!	!	!	!	!LO:LB:g=original	!	!	!
=31	=31	=31	=31	=31	=31	=31	=31	=31	=31	=31	=31	=31	=31	=31	=31
4.CC/ 4.C/	.	.	4.G/ 4.e/	(8cc\L	.	4.C/	in	4.G/	in	4.e\	ex-	8cc\L	-Cel-	4c/	8cc\L
.	.	.	.	8g\)	.	.	.	.	.	.	.	8g\	.	.	8g\
.	.	.	.	8ee'\J	.	.	.	.	.	.	.	8ee\J	-sis	8r	8ee\J
=32	=32	=32	=32	=32	=32	=32	=32	=32	=32	=32	=32	=32	=32	=32	=32
4.CC/ 4.C/	.	.	4.G/ 4.e/	4cc\	.	8.C/L	ex-	4G/	ex-	4e\	-Cel-	4cc\	O-	4c/	4cc\
.	.	.	.	.	.	16C/Jk	.	.	.	.	.	.	.	.	.
.	.	.	.	8g/	.	8C/	-Cel-	16G/LL	-Cel-	8e\	-sis	8g\	-san-	8r	8r
.	.	.	.	.	.	.	.	16G/JJ	-sis	.	.	.	.	.	.
!	!	!	!LO:LB:g=original	!	!	!	!	!	!	!	!	!	!	!	!
=33	=33	=33	=33	=33	=33	=33	=33	=33	=33	=33	=33	=33	=33	=33	=33
4.CC/ 4.C/	.	.	4.G/ 4.e/	(8cc\L	.	4.C/	-sis	4.G/	O-	4.e\	o-	8cc\L	-na	4c/	8cc\L
.	.	.	.	8g\)	.	.	.	.	.	.	.	8g\	.	.	8g\
.	.	.	.	8ee'\J	.	.	.	.	.	.	.	8ee\J	.	8r	8ee\J
=34	=34	=34	=34	=34	=34	=34	=34	=34	=34	=34	=34	=34	=34	=34	=34
4.CC/ 4.C/	.	.	4.G/ 4.e/	(8cc\L	.	4.C/	o-	4.G/	-san-	4.e\	-san-	8cc\L	in	4c/	8cc\L
.	.	.	.	8g\)	.	.	.	.	.	.	.	8g\	.	.	8g\
.	.	.	.	8gg'\J	.	.	.	.	.	.	.	8gg\J	.	8r	8gg\J
!	!	!	!	!LO:LB:g=original	!	!	!	!LO:LB:g=original	!	!	!	!	!	!	!
=35	=35	=35	=35	=35	=35	=35	=35	=35	=35	=35	=35	=35	=35	=35	=35
!	!	!	!	!	!	!	!	!	!	!	!	!LO:SIC:o:s=:v: prawopodobnie brak jednego taktu w źródle	!	!	!
4.CC/ 4.C/	.	.	4.G/ 4.e/	(8cc\L	.	4.C/	-san	4.G/	-na	4.e\	-na	4.ryy	.	4c/	8cc\L
.	.	.	.	8g\)	.	.	.	.	.	.	.	.	.	.	8g\
.	.	.	.	8ee'\J	.	.	.	.	.	.	.	.	.	8r	8ee\J
!LO:LB:g=original	!	!	!	!	!	!LO:LB:g=original	!	!	!	!	!	!	!	!	!
=36	=36	=36	=36	=36	=36	=36	=36	=36	=36	=36	=36	=36	=36	=36	=36
4C/	.	.	4G/ 4e/	4cc\	.	8.C/L	o	4G/	O-	4e\	O-	8cc\	ex-	4c/	4cc\
.	.	.	.	.	.	.	.	.	.	.	.	8ee\	-Cel-	.	.
.	.	.	.	.	.	16C/Jk	san-	.	.	.	.	.	.	.	.
8C/	.	.	8g/	8ee\	.	8C/	-na	16c\LL	-san-	16g\LL	-san-	8ee\	-sis	8r	8r
.	.	.	.	.	.	.	.	16c\JJ	-na	16g\JJ	-na	.	.	.	.
=37	=37	=37	=37	=37	=37	=37	=37	=37	=37	=37	=37	=37	=37	=37	=37
8D/L	6	.	8g/L	(8ff\L	.	8D\L	in	8B\L	in	8g\L	in	8ff\	O-	4c/	4ff\
8GG/	.	.	8b/	8dd\)	.	8G\	.	8d\	.	8b\	.	8dd\	-san-	.	.
!	!	!	!	!	!	!LO:TX:a:t=P:problem=mixed beam	!	!	!	!	!	!	!	!	!
8C/J	5 3	.	8g/J	8ee'\J	.	8C/J	.	8c\J	.	8g\J	.	8ee\	-na	8r	8ee\
=38	=38	=38	=38	=38	=38	=38	=38	=38	=38	=38	=38	=38	=38	=38	=38
!	!	!	!	!	!	!	!	!	!	!	!	!	!	!LO:SIC:o:s=:v: wszystkie dolne caudy z prawej strony	!
8D/L	6	.	8g/L	(8ff\L	.	8D\L	ex-	8B\L	ex-	8g\L	ex-	8ff\	in	4dd\	4ff\
8GG/	.	.	8b/	8dd\)	.	8G\	.	8d\	.	8b\	.	8dd\	ex-	.	.
8C/J	5 3	.	8g/J	8ee'\J	.	8C\J	.	8c\J	.	8g\J	.	8ee\	.	8cc\	8ee\
!	!	!	!	!	!	!	!	!	!	!	!	!	!	!	!LO:LB:g=original
=39	=39	=39	=39	=39	=39	=39	=39	=39	=39	=39	=39	=39	=39	=39	=39
8F\L	6	.	8f/L	8dd\L	.	8F\L	-Cel-	8A\L	-Cel-	8f\L	-Cel-	8dd\L	-Cel-	4dd\	8r
8G\	4	.	8e/	8cc\	.	8G\	.	8c\	.	8e\	.	8cc\	.	.	8cc\L
!LO:TX:a:t=P:problem=mixed beam	!	!	!	!	!	!LO:TX:a:t=P:problem=mixed beam	!	!	!	!	!	!	!	!	!
8GG/J	3	.	8d/J	8b\J	.	8GG/J	.	8G\J	-sis	8d\J	-sis	8b\J	-sis	8cc\	8dd\J
!	!	!	!	!	!	!	!	!	!	!LO:LB:g=original	!	!	!	!	!
=40	=40	=40	=40	=40	=40	=40	=40	=40	=40	=40	=40	=40	=40	=40	=40
!LO:TX:b:t=8va	!	!	!	!	!	!	!	!	!	!	!	!	!	!	!
4.C/	.	.	4.G/ 4.e/	4cc\	.	4.C/	-sis	4.G/	in	4.e\	in	4cc\	cel-	8r	4cc\
.	.	.	.	.	.	.	.	.	.	.	.	.	.	8e/L	.
.	.	.	.	8ee\	.	.	.	.	.	.	.	8ee\	-sis	8g/J	8r
=41	=41	=41	=41	=41	=41	=41	=41	=41	=41	=41	=41	=41	=41	=41	=41
4.C/	.	.	4.G/ 4.e/	(8cc\L	.	4.C/	in	4.G/	ex-	4.e\	ex-	8cc\L	O-	4e/	4cc\
.	.	.	.	8g\)	.	.	.	.	.	.	.	8g\	-san-	.	.
.	.	.	.	8gg'\J	.	.	.	.	.	.	.	8gg\J	-na	8r	8r
=42	=42	=42	=42	=42	=42	=42	=42	=42	=42	=42	=42	=42	=42	=42	=42
4.C/	.	.	4.G/ 4.e/	(8cc\L	.	4.C/	ex	4.G/	-Cel-	4.e\	-Cel-	8cc\L	in	4e/	4cc\
.	.	.	.	8g\)	.	.	.	.	.	.	.	8g\	ex-	.	.
.	.	.	.	8ee'\J	.	.	.	.	.	.	.	8ee\J	-Cel-	8r	8r
=43	=43	=43	=43	=43	=43	=43	=43	=43	=43	=43	=43	=43	=43	=43	=43
4.C/	.	.	4.G/ 4.e/	4e/ 4cc/	.	4.C/	Celsis	4G/	-sis	4e\	-sis	4cc\	-sis	4e/	4cc\
.	.	.	.	8r	.	.	.	8r	.	8r	.	8r	.	8r	8r
==44;	==44	==44	==44;	==44;	==44	==44;	==44	==44;	==44	==44;	==44	==44;	==44	==44;;	==44;;
*-	*-	*-	*-	*-	*-	*-	*-	*-	*-	*-	*-	*-	*-	*-	*-
!!!system-decoration: s1,s2[(s3,s4,s5,s6)][(s7,s8)]s9
!!!RDF**kern: > = above
!!!RDF**kern: < = below
!!!EED: Leszek Kubiak
!!!EEV: 2020-11-23
!!!ENC: Anastazja Marusiak
!!!END: 2020-06-08
!!!YEC: Copyright 2022 Narodowy Instytut Fryderyka Chopina (https://polishscores.org)
!!!YEM: License CC-BY-4.0 (https://creativecommons.org/licenses/by/4.0)
